X:23011
T:Walls Of Liscarrol, The
R:Jig
C:Trad.
O:Ireland
Z:Paul Hardy's Session Tunebook 2022 (see www.paulhardy.net). Creative Commons cc by-nc-sa licenced.
M:6/8
L:1/8
Q:3/8=100
K:Ddor
A|"Dm"dcA "Am"AGE|"C"GED "Dm"D2E|"C"GEE cEE|GAB cde|
"Dm"dcA "Am"AGE|"C"GED "Dm"D2E|"C"GEE cEE|GED "Dm"D2:|
|:B|"Dm"dcA "Am"ecA|"Dm"dcA "Am"ecA|"C"GEE cBc|GAB "Am"cde|
"Dm"dcA "Am"ecA|"Dm"dcA "Am"ecA|"C"GEE cEE|GED "Dm"D2:|

